!!!OTL: Das Leben ein W&uuml;rfelspiel (275), S. 586
!!!id: T0465
**kern
*clefG2
*k[f#]
*G:
{8g
8a
=1
4.b
8b
8b
8b
8a
8g
=2
4a
8d
8d
4d}
=3
{8a
8b
=4
4.cc
8cc
8ee
16dd
16dd
8cc
8dd
=5
4b
8b
8b
4b}
=6
{8g
8b
=7
4.b
8b
8cc
8b
8a
8g
=8
8f#
8g
4ee}
4r
=9
{4ee
=10
4.dd
8dd
8ee
16dd
16dd
8cc
8dd
=11
4b}
=12
{8b
8b
8b
8a
8b
8cc
=13
4dd
8dd
8cc
4b
4a
=14
4g}
2r
==
*-
!!!minrhy: 16
!!!meters: 4/4 ]  ZZ[5
!!!cut: Das Leben ein W&uuml;rfelspiel (275), S. 586
!!!reg: Luxemburg
!!!trd: Singendes Volk, Esch-Alzette, 1937 posth.
!!!rhy1: X_X_  X__.X_X_X_X_X_  X__X_X_X__
!!!rhy2: X_X_  X__.X_X_XXX_X_  X__X_X_X__
!!!key: T0465  16  G 4/4 ]  ZZ[5
!!!mod: HEPTATONIK IONISCH]  AMBITUS[9
!!!kad: -53631
!!!akz: 332-5_4633_34-7_563_3531_
!!!fot: 'a__b__c__d__e__
!!!for: 'a__b__c__bw_d__
!!!fok: '^d_^a_~a_\__^d_
!! PHRAS[AUFTAKTIG]
!!!fkt: ???
!!!bem: Merzig, hhh Anton Koob, Liederheft, 1861
!! THILL; Mathias
!! PR[51] 2K[6] 2G[9] 3K[0] 3G[6] 4A[0] 4Ü[0] 5A[0] 6K[0] 6G[1]
!! 7K[0] 7G[0] 8A[0] MEHR[0] SI[22] ABS[67] SR[15] SP[7]
!! ST[14] 2k[4] 2g[18] 3k[3] 3g[1] 4d[0] 4ü[0] 5d[0] 6k[0] 6g[0]
!! 7k[0] 7g[0] 8d[0] mehr[0] si[27] dm[-5] sr[22] sp[4]
!! 1F[6] 2F[73] 3F[21] 4F[0] LF[0] 2P[0] 3P[0] 4P[0] TRI[0] DF[3] AB[71]
!! TF[0] U3K[0] U3[0] U4[0] U4Ü[0] U5[0] U6K[0] U6[0] U7K[0] U7[0]
!! N1[4] N2K[0] N2[4] N3K[0] N3[18] N4[26] N4Ü[0] N5[31] N6K[0] N6[16]
!!!n7k: 0] N7[0] O1[0] O2K[0] O2[0] O3K[0] O3[0] HÖ[0
!!!RNB: symbol: &uuml;  = u umlaut (UTF-8: Ã¼)
